X:190
T: Leahy's
T: Port U\'i Laochdha
S: B.Breathnach: "Ceol Rince na hEireann" II/44
Z: B.Black
N: Parts not repeated
L: 1/8
M: 6/8
R: jig
K: D
a|baf f<af|ede fdB|AFA d2e|fee efa|
baf faf|ede fdB|DFA gfe|fdd d2 :|
A|dfa b3|baf afe|dfa b3|aff efe|
dfa b3|baf afe|dff ede|fdd d2 :|
